src/assets/our_advantages/item-oa-2.svg

<svg width="100" height="100" viewBox="0 0 100 100" fill="none" xmlns="http://www.w3.org/2000/svg">
<circle cx="50" cy="50" r="50" fill="#0F76D1"/>
<path fill-rule="evenodd" clip-rule="evenodd" d="M53.057 29.2138C57.4434 29.8664 61.7473 32.0275 65.4826 35.9551V30.6563H68.9413V42.6057H56.9184V39.1682H63.742C60.296 35.1823 56.3723 33.1828 52.5449 32.6134C47.9099 31.9238 43.2217 33.3019 39.4288 36.1348L37.351 33.3868C41.793 30.0691 47.3983 28.3718 53.057 29.2138ZM34.6183 36.4345L41.8321 45.9941L39.0652 48.0566L34.9658 42.6242C33.825 47.2455 33.7573 51.3761 34.8922 54.948C36.2681 59.2787 39.4941 63.0445 45.3394 65.9493L43.7927 69.0239C37.2857 65.7903 33.3061 61.3716 31.5941 55.9832C30.3449 52.0516 30.3479 47.7441 31.2866 43.2149L27.0752 46.3542L25 43.6042L34.6183 36.4345ZM55.2787 68.7197C60.7522 67.3059 64.596 64.2544 67.1068 60.5112C69.9095 56.3329 71 51.3774 71 47.0253H67.5414C67.5414 50.8577 66.5731 55.1099 64.229 58.6045C62.0711 61.8215 58.7034 64.4697 53.6365 65.5767L56.4064 60.0707L53.3129 58.5334L48.55 68.0009L57.9395 75L60.0147 72.25L55.2787 68.7197Z" fill="white"/>
</svg>

<svg xmlns="http://www.w3.org/2000/svg" width="100" height="100" fill="none"><circle cx="50" cy="50" r="50" fill="#0F76D1"/><path fill="#fff" fill-rule="evenodd" d="M53.057 29.214c4.386.652 8.69 2.814 12.426 6.741v-5.299h3.458v11.95H56.918v-3.438h6.824c-3.446-3.986-7.37-5.985-11.197-6.555-4.635-.69-9.323.689-13.116 3.522l-2.078-2.748c4.442-3.318 10.047-5.015 15.706-4.173m-18.439 7.22 7.214 9.56-2.767 2.063-4.1-5.433c-1.14 4.621-1.208 8.752-.073 12.324 1.376 4.33 4.602 8.096 10.447 11.001l-1.546 3.075c-6.507-3.234-10.487-7.652-12.199-13.04-1.25-3.932-1.246-8.24-.307-12.77l-4.212 3.14L25 43.604zm20.66 32.286c5.474-1.414 9.318-4.466 11.829-8.209C69.909 56.333 71 51.377 71 47.025h-3.459c0 3.833-.968 8.085-3.312 11.58-2.158 3.217-5.526 5.865-10.593 6.972l2.77-5.506-3.093-1.538-4.763 9.468L57.94 75l2.075-2.75z" clip-rule="evenodd"/></svg>
